X: 15318
T: Give The Fiddler A Dram
R: reel
M: 4/4
K: Gmajor
|:(3DEF|G2GA BAGG|AG=F2 =F2FE|D2d2 dedc|BAGF G2:|
Bc|d2g2 gag=f|edcB c2cB|A2a2 abag|fed^c d2B=c|
d2g2 gag=f|edcB c2AB|cBAG FGAc|BAGF G2 z2|

